lib/logo_tmp/nrk-logo-nrk-jazz.svg

<svg width="83" height="16" viewBox="0 0 83 16" fill="none" xmlns="http://www.w3.org/2000/svg">
<path d="M6.10352e-05 15.0001V1.00135H4.59345V15.0001H6.10352e-05ZM10.8428 3.22932L13.4845 15.0001H8.45743L5.30313 1.00135H8.1226C8.76913 0.992962 9.39647 1.22087 9.88698 1.6422C10.3783 2.04586 10.7158 2.60623 10.8428 3.22932ZM14.1745 15.0001V1.00135H18.7679V15.0001H14.1745ZM22.2373 6.32486C21.7423 6.32969 21.2553 6.20018 20.828 5.95021C20.4065 5.70655 20.0563 5.35637 19.8127 4.93478C19.5625 4.50747 19.4329 4.0203 19.4379 3.52512C19.4322 3.03295 19.5618 2.54869 19.8127 2.12525C20.0589 1.70824 20.4087 1.36186 20.828 1.11969C21.2554 0.870001 21.7423 0.740515 22.2373 0.745029C22.7293 0.73973 23.2134 0.869332 23.637 1.11969C24.0521 1.36398 24.3982 1.71007 24.6424 2.12525C24.893 2.54881 25.0226 3.03299 25.0173 3.52512C25.0219 4.02026 24.8924 4.50735 24.6424 4.93478C24.4007 5.35452 24.0543 5.70441 23.637 5.95021C23.2133 6.20105 22.7289 6.33069 22.2366 6.32486H22.2373ZM25.727 15.0001V1.00135H30.3208V15.0001H25.727ZM36.1361 8.65135C36.149 8.66494 36.2475 8.82594 36.4318 9.1344C36.616 9.44285 36.8558 9.83721 37.1513 10.3174C37.447 10.7974 37.7591 11.3067 38.0874 11.8454C38.4158 12.3841 38.7248 12.8935 39.0144 13.3735C39.3028 13.8535 39.6314 14.3957 40.0001 15.0001H34.9532C34.6376 14.4875 34.3516 14.0241 34.0953 13.6101C33.839 13.196 33.5666 12.7491 33.2779 12.2693C32.9885 11.79 32.7024 11.3234 32.4196 10.8695C32.1368 10.4155 31.8938 10.018 31.6905 9.67665C31.4864 9.33512 31.345 9.10506 31.2663 8.98654C31.0714 8.69243 30.956 8.35276 30.9315 8.00072C30.9511 7.66284 31.0598 7.33622 31.2466 7.05404C31.3255 6.9226 31.4701 6.68925 31.6803 6.35407C31.8906 6.01889 32.1371 5.62131 32.4196 5.16126C32.7022 4.70121 32.9883 4.23129 33.2779 3.75152C33.5675 3.27175 33.8399 2.82152 34.0953 2.4009C34.352 1.98072 34.638 1.5141 34.9532 1.00103H40.0001L36.0963 7.36949C35.9755 7.55857 35.9074 7.77648 35.8991 8.00072C35.9121 8.23612 35.9943 8.46245 36.1354 8.65135H36.1361Z" fill="white"/>
<path d="M49.1411 11.8136C49.1447 12.0423 49.1048 12.2697 49.0234 12.4833C48.9496 12.673 48.8358 12.8443 48.6897 12.9855C48.538 13.128 48.3571 13.2355 48.1597 13.3007C47.9318 13.3758 47.693 13.4124 47.4532 13.409C47.2961 13.409 47.1489 13.4024 47.0115 13.3893C46.8741 13.3762 46.7367 13.3598 46.5993 13.3401C46.4619 13.3204 46.3246 13.2973 46.1872 13.2708C46.0498 13.2443 45.9092 13.2149 45.7652 13.1825C45.6213 13.1497 45.4773 13.1136 45.3334 13.0742L45.4904 14.8468C45.6736 14.8993 45.8503 14.9485 46.0204 14.9942C46.1905 15.0405 46.3605 15.0795 46.5306 15.1127C46.7058 15.1459 46.8828 15.1689 47.0606 15.1813C47.2438 15.1945 47.4466 15.2011 47.669 15.2013C48.1228 15.2085 48.5753 15.152 49.0135 15.0336C49.371 14.9362 49.7071 14.7726 50.0047 14.5514C50.2731 14.3483 50.5025 14.098 50.6819 13.8128C50.8602 13.5266 50.9926 13.2141 51.0744 12.8868C51.1607 12.5422 51.2035 12.1882 51.202 11.833V1.00012H49.1411V11.8136Z" fill="white"/>
<path d="M62.8213 13.7439C62.6778 13.757 62.5333 13.7353 62.4001 13.6804C62.2668 13.6255 62.1487 13.5392 62.0558 13.4287C61.8738 13.1131 61.7982 12.747 61.8399 12.3848L61.8792 8.32743C61.8835 7.90208 61.8307 7.47809 61.7222 7.06689C61.6268 6.7062 61.4672 6.36577 61.2511 6.06205C61.0326 5.76529 60.7553 5.51717 60.4365 5.33331C60.0661 5.12242 59.6657 4.96974 59.2491 4.88061C58.7398 4.7702 58.2197 4.71735 57.6986 4.72305C57.2852 4.72274 56.8721 4.74895 56.4621 4.80151C56.0746 4.85067 55.691 4.92643 55.3139 5.02832C54.9641 5.12337 54.6201 5.23847 54.2835 5.37302L54.0479 7.04718C54.375 6.92922 54.6858 6.83073 54.9802 6.75173C55.2746 6.67273 55.5592 6.60708 55.834 6.55477C56.1032 6.50323 56.3752 6.46718 56.6485 6.44678C56.9163 6.42709 57.1813 6.41711 57.4434 6.41689C57.8436 6.40842 58.2431 6.45482 58.6308 6.55477C58.9138 6.62582 59.1739 6.76832 59.3865 6.96872C59.5759 7.16343 59.7112 7.40449 59.779 7.66793C59.8628 7.99264 59.9024 8.32723 59.8968 8.66259L59.8945 9.15664L57.6004 9.31256C56.8158 9.33459 56.0427 9.50834 55.3237 9.82432C54.7857 10.0607 54.3212 10.4384 53.9792 10.9175C53.689 11.3439 53.535 11.8488 53.5376 12.3651C53.534 12.8497 53.652 13.3274 53.881 13.754C54.1212 14.192 54.4825 14.551 54.9213 14.7877C55.4567 15.0673 56.0551 15.203 56.6583 15.1817C57.2234 15.1947 57.786 15.1012 58.3168 14.9063C58.7757 14.726 59.1956 14.4585 59.5533 14.1184C59.6892 13.9878 59.818 13.8501 59.9393 13.7058C59.9774 13.9098 60.0493 14.106 60.152 14.2862C60.327 14.5876 60.596 14.8229 60.9174 14.9558C61.2728 15.0991 61.6533 15.1695 62.0362 15.1626C62.154 15.1626 62.2685 15.159 62.3797 15.1528C62.4889 15.1462 62.5973 15.1296 62.7036 15.1032C62.8082 15.077 62.9027 15.0543 62.9881 15.0343C63.065 15.0172 63.1405 14.9941 63.2138 14.9653L63.4298 13.646C63.3214 13.6832 63.2096 13.7096 63.0961 13.7248C63.005 13.7368 62.9132 13.7431 62.8213 13.7439ZM59.5533 12.8575C59.3405 13.0264 59.1102 13.1718 58.8664 13.2912C58.6234 13.4096 58.3661 13.4957 58.1009 13.5472C57.826 13.6002 57.5467 13.6265 57.2668 13.6257C56.9469 13.635 56.6288 13.5745 56.3344 13.4484C56.0949 13.3443 55.893 13.1691 55.7555 12.9465C55.6195 12.7104 55.5515 12.441 55.5592 12.1685C55.5402 11.84 55.6299 11.5145 55.8144 11.2425C56.0281 10.9923 56.3177 10.8193 56.6387 10.7501C57.1402 10.6317 57.6547 10.5789 58.1696 10.5928H59.8883L59.8795 12.5476C59.7798 12.66 59.6707 12.7639 59.5533 12.8575Z" fill="white"/>
<path d="M72.7131 6.33807L72.4776 4.93932H64.9015L64.6659 6.51502H70.3657L64.4896 13.645L64.7252 14.9843H72.7331L72.949 13.3889H66.9499L72.7131 6.33807Z" fill="white"/>
<path d="M76.8418 13.3893L82.6056 6.33846L82.3698 4.93967H74.7936L74.558 6.51538H80.2575L74.3815 13.6454L74.617 14.9847H82.6249L82.8408 13.3893H76.8418Z" fill="white"/>
</svg>

<svg xmlns="http://www.w3.org/2000/svg" viewBox="0 0 83 16"><path fill="#fff" d="M0 15V1.001h4.593v14H0ZM10.843 3.23 13.485 15H8.457L5.303 1.001h2.82a2.655 2.655 0 0 1 1.764.641c.491.404.829.964.956 1.587ZM14.175 15V1.001h4.593v14h-4.594Zm8.062-8.675a2.779 2.779 0 0 1-2.425-1.39 2.735 2.735 0 0 1-.374-1.41 2.685 2.685 0 0 1 .375-1.4 2.813 2.813 0 0 1 3.824-1.005c.415.244.761.59 1.005 1.005.251.424.38.908.375 1.4.005.495-.125.982-.375 1.41a2.8 2.8 0 0 1-1.005 1.015c-.424.251-.908.38-1.4.375ZM25.727 15V1.001h4.594v14h-4.594Zm10.41-6.349c.012.014.11.175.295.483.184.309.424.703.72 1.183a373.133 373.133 0 0 1 1.862 3.056c.289.48.617 1.023.986 1.627h-5.047c-.315-.512-.601-.976-.858-1.39-.256-.414-.528-.86-.817-1.34-.29-.48-.576-.947-.858-1.4a71.337 71.337 0 0 1-.73-1.193 20.751 20.751 0 0 0-.424-.69A2.041 2.041 0 0 1 30.932 8c.02-.338.128-.665.315-.947.079-.131.223-.365.433-.7a212.331 212.331 0 0 0 1.598-2.603l.817-1.35.858-1.4H40l-3.904 6.368c-.12.19-.189.407-.197.632.013.235.095.461.236.65h.001ZM49.141 11.814c.004.228-.036.456-.118.67-.073.189-.187.36-.333.502-.152.142-.333.25-.53.315a2.16 2.16 0 0 1-.707.108c-.157 0-.304-.007-.442-.02a8.766 8.766 0 0 1-.824-.118 10.32 10.32 0 0 1-.854-.197l.157 1.773c.184.052.36.101.53.147.17.046.34.085.51.119.176.033.353.056.53.068.184.014.387.02.609.02.454.008.906-.049 1.345-.167a2.97 2.97 0 0 0 .99-.483c.27-.203.498-.453.678-.738.178-.286.31-.599.392-.926.087-.345.13-.699.128-1.054V1h-2.06v10.814ZM62.821 13.744a.892.892 0 0 1-.765-.315 1.7 1.7 0 0 1-.216-1.044l.04-4.058a4.753 4.753 0 0 0-.158-1.26 3.101 3.101 0 0 0-.47-1.005 2.665 2.665 0 0 0-.816-.729c-.37-.21-.77-.363-1.187-.452a6.96 6.96 0 0 0-1.55-.158c-.414 0-.827.026-1.237.079-.387.049-.771.124-1.148.226-.35.095-.694.21-1.03.345l-.236 1.674a11.688 11.688 0 0 1 1.786-.492 7.17 7.17 0 0 1 .814-.108c.268-.02.533-.03.795-.03.4-.009.8.038 1.188.138.283.07.543.213.755.414.19.194.325.435.393.699.084.325.123.66.118.995l-.002.494-2.295.156a6.083 6.083 0 0 0-2.276.511 3.267 3.267 0 0 0-1.345 1.094 2.55 2.55 0 0 0-.441 1.447c-.004.485.114.962.343 1.389.24.438.602.797 1.04 1.034.536.28 1.134.415 1.737.394a4.51 4.51 0 0 0 1.659-.276c.459-.18.879-.447 1.236-.788.136-.13.265-.268.386-.412.038.204.11.4.213.58.175.302.444.537.765.67.356.143.736.213 1.12.207.117 0 .232-.004.343-.01.109-.007.217-.023.324-.05l.284-.069a1.52 1.52 0 0 0 .226-.069l.216-1.319a1.74 1.74 0 0 1-.334.079 2.255 2.255 0 0 1-.275.019Zm-3.268-.886a3.777 3.777 0 0 1-.687.433c-.243.119-.5.205-.765.256a4.34 4.34 0 0 1-.834.079c-.32.009-.638-.051-.933-.178a1.28 1.28 0 0 1-.579-.502 1.476 1.476 0 0 1-.196-.777c-.019-.329.07-.655.255-.927a1.5 1.5 0 0 1 .825-.492 5.962 5.962 0 0 1 1.53-.157h1.72l-.01 1.955c-.1.112-.208.216-.326.31ZM72.713 6.338l-.235-1.399h-7.576l-.236 1.576h5.7l-5.876 7.13.235 1.34h8.008l.216-1.596h-6l5.764-7.05ZM76.842 13.39l5.764-7.052-.236-1.398h-7.576l-.236 1.575h5.7l-5.876 7.13.235 1.34h8.008l.216-1.596h-6Z"/></svg>
